src/icons/dex.svg

<svg viewBox="0 0 24 24" fill="none" xmlns="http://www.w3.org/2000/svg">
<path d="M5 19H20C20.5523 19 21 19.4477 21 20C21 20.5523 20.5523 21 20 21H4C3.44772 21 3 20.5523 3 20V4C3 3.44772 3.44772 3 4 3C4.55228 3 5 3.44772 5 4V19Z" fill="currentColor"/>
<path opacity="0.44" d="M8.72954 14.684C8.35181 15.0869 7.71897 15.1073 7.31606 14.7296C6.91315 14.3518 6.89274 13.719 7.27047 13.3161L11.0205 9.3161C11.3858 8.92644 11.9928 8.89264 12.3991 9.23935L15.3589 11.765L19.2151 6.8804C19.5573 6.44692 20.1862 6.37294 20.6196 6.71516C21.0531 7.05738 21.1271 7.68621 20.7849 8.11969L16.2849 13.8197C15.9334 14.2649 15.2824 14.3289 14.8509 13.9607L11.8268 11.3802L8.72954 14.684Z" fill="currentColor"/>
</svg>

<svg viewBox="0 0 24 24" fill="none" xmlns="http://www.w3.org/2000/svg"><path d="M5 19h15a1 1 0 1 1 0 2H4a1 1 0 0 1-1-1V4a1 1 0 0 1 2 0v15z" fill="currentColor"/><path opacity=".44" d="M8.73 14.684a1 1 0 0 1-1.46-1.368l3.75-4a1 1 0 0 1 1.38-.077l2.959 2.526 3.856-4.885a1 1 0 1 1 1.57 1.24l-4.5 5.7a1 1 0 0 1-1.434.14l-3.024-2.58-3.097 3.304z" fill="currentColor"/></svg>
